fonts/zosokw/uni004f.svg

<svg width="500" height="650" xmlns="http://www.w3.org/2000/svg">
    <path d="M-250 550a25 25 0 0 0-25 25 25 25 0 0 0 25 25 25 25 0 0 0 25-25 25 25 0 0 0-25-25m0 50h-100a25 25 0 0 0-25 25 25 25 0 0 0 25 25h200a25 25 0 0 0 25-25 25 25 0 0 0-25-25z"/>
</svg>

<svg width="500" height="650" xmlns="http://www.w3.org/2000/svg">
    <path
        d="M -250 550 A 25 25 0 0 0 -275 575 A 25 25 0 0 0 -250 600 A 25 25 0 0 0 -225 575 A 25 25 0 0 0 -250 550 z M -250 600 L -350 600 A 25 25 0 0 0 -375 625 A 25 25 0 0 0 -350 650 L -150 650 A 25 25 0 0 0 -125 625 A 25 25 0 0 0 -150 600 L -250 600 z " />
</svg>
